X:1
T:02. Behold The Lamb of God
T:G.F.Handel
T:(c) CCARH 2003
T:(c) CCARH 2003
T:(c) CCARH 2003
Z:(c) CCARH 2003
%%score 1 2 3 4
L:1/8
Q:1/4=48
M:4/4
K:Bb
V:1 treble nm="Soprano" snm="S."
V:2 treble nm="Alto" snm="A."
V:3 treble-8 nm="Tenor" snm="T."
V:4 bass nm="Bass" snm="B."
V:1
"Gm" z4 |"Gsus4""Gm" z8 |"Gsus4" z4"Gm" z2"Gsus4" z G |"Gm" g>f"Gsus4" e>d"Gm" d2"Gsus4" z2 | %4
w: ||Be-|hold the Lamb of God!|
"D" z2"Dsus4" z D"D" d>c"Dsus4" B>A |"D" A2"Dsus4" z d"D" c2 B>A |"Gm" (B>A) G>^F G3 A | %7
w: be- hold the Lamb of|God! that tak- eth, that|tak- * eth a- way the|
"Gm" (B>c) d>=e"F" f4- |"F" f2"Fsus4" z f"F" f>e"Fsus4" d>c |"F" c>c"Fsus4" B>A"F" A2"G7" =B2 | %10
w: sin _ of the world,|_ be- hold the Lamb of|God, the Lamb of God, of|
"C" c>B"F/C" A>G"C" G2 z c |"Dm" (F>G)"Dm7/C" A>B"F" c2 z c |"Bb" (B>c)"Bb/A" d>=e"F" f2 f2- | %13
w: God, the Lamb of God! that|tak- * eth a- way the|sin _ of the world, of|
"F/C" f2"C" =e2"F" f2"D/F#" z d |"Gm" B>d"Cm" c>d"D" d2"Gm" z d |"Cm" g>f e>d"Gm" d2 B2 | %16
w: _ the world, be-|hold the Lamb of God! be-|hold the Lamb of God! that|
"Eb" B2 BB"Eb" B2-"Ebsus4" BB |"Eb" B2"Ebsus4" B>B"Eb""Ebsus4" B4- |"Eb""Ebsus4""Eb""Ebsus4" B8- | %19
w: tak- eth a- way _ the|sin of the world,|_|
"Eb""Ebsus4" B4"Bb" z2 d2 |"Gm" B2"Gsus4" A>G"Gm""Gsus4" d4- |"Gm""Gsus4" d3 d"Gm""Gsus4" d4 | %22
w: * that|tak- eth a- way|_ the sin|
"Gm" d2"Gsus4" d2"Gm""Gsus4" d4- |"Gm""Gsus4""Gm""Gsus4" d8- |"D" d3 c"Dsus4" B2 AB | %25
w: of the world,|_|* the sin of the|
"D" AD"G/Bb""C" d4 cc |"D" c2 B2 A2 A>G |"Gm" G4 z4 | z8 |] %29
w: world, that tak- eth a-|way the sin of the|world||
V:2
 z4 | z8 | z2 z G, G>F E>D | D2 (C>B,) B,>D G>^F | ^F>A G>F F2 z2 | z2 G2 G2 ^F>F | G2 z2 z2 z D | %7
w: ||Be- hold the Lamb of|God! be- * hold the Lamb of|God, the Lamb of God!|that tak- eth a-|way the|
 (G>A) B>B A2 z F | F>E D>C C>F B>A | A2 z F A>G F>=E | =E>G F>E E2 z E | (D>=E) F>G A2 z F | %12
w: sin _ of the world, be-|hold the Lamb of God, the Lamb of|God! be- hold the Lamb of|God, the Lamb of God! that|tak- * eth a- way the|
 F2 F>G F2 z G | A2 GG A2 z A | G>A G>^F F2 z G | G2 G2 G2 z2 | z2 z B, (E>G) F>_A | %17
w: sin of the world, the|sin of the world, be-|hold the Lamb of God, the|Lamb of God!|that tak- * eth a-|
 (G>E D>)F (E>G F>)_A | (G>E) D>F (E>G F)F | G2 F>E F2 z2 | z4 z2 z D | (G>B) A>c (B>G ^F>)A | %22
w: way _ _ the sin, _ _ the|sin _ of the world, _ _ the|sin of the world,|that|tak- * eth a- way _ _ the|
 (G>B A>)c (B>G) ^F>A | (G>B A)A G2 AB | A3 A G2 ^FG | ^F2 z D =E2 EE | ^F2 DG G2 F>G | G4 z4 | %28
w: sin, _ _ the sin _ of the|world, _ _ the sin of the|world, the sin of the|world, that tak- eth a-|way the _ sin of the|world.|
 z8 |] %29
w: |
V:3
 z4 | z8 | z8 | z4 z2 z G | d>c B>A A>A Gg | ^f2 z2 z2 z d | (d>c) B>c d3 c | (d>c) BB c2 z d | %8
w: |||Be-|hold the Lamb of God, the Lamb of|God! that|tak- * eth a- way the|sin _ of the world, be-|
 d>c B>A A2 z f | f>e d>c c2 d2 | G>=E c>c c2 z c | A2 A>G F2 z c | d2 c>B c2 z d | c2 cc c2 z d | %14
w: hold the Lamb of God! be-|hold the Lamb of God! be-|hold the Lamb of God! that|tak- eth a- way the|sin of the world, the|sin of the world, be-|
 d>d e>A A2 z B | c2 c2 B2 z2 | z4 z2 z F | (G>B) _A>d e3 d | (e>B) _A>d (e2 d)d | e2 B>c d2 z2 | %20
w: hold the Lamb of God, the|Lamb of God!|that|tak- * eth a- way the|sin _ of the world, _ the|sin of the world,|
 z8 | z2 z ^F d2 c>e | (d>g ^f)f (g>d) c>e | (d>g ^f)f d2 dg | ^f3 f d2 dd | A2 z B G2 Gc | %26
w: |that tak- eth a-|way _ _ the sin _ of the|world, _ _ the sin of the|world, the sin of the|world, that tak- eth a-|
 A2 Bc d2 d>d | d4 z4 | z8 |] %29
w: way the _ sin of the|world.||
V:4
 z4 | z8 | z8 | z2 z G,, G,>F, E,>D, | D,4- D,2 z D, | D>C B,>A, A,2 z D, | G,2 G,>A, B,3 A, | %7
w: |||Be- hold the Lamb of|God! _ be-|hold the Lamb of God! that|tak- eth a- way the|
 G,2 G,G, F,4- | F,8- | F,2 z F, F,>=E, D,>C, | C,4- C,2 z C, | D,2 C,>B,, A,,2 z A, | %12
w: sin of the world,|_|* be- hold the lamb of|God! _ that|tak- eth a- way the|
 B,2 A,>G, A,2 z B, | C2 C,C, F,2 z ^F, | G,>F, E,>D, D,2 z G, | E,2 C,2 G,2 z2 | z4 z2 z B,, | %17
w: sin of the world, the|sin of the world, be-|hold the Lamb of God, the|Lamb of God!|that|
 (E,>G,) F,>_A, (G, B,2) B,, | (E,>G,) F,>_A, (G, B,2) A, | G,2 D,>E, B,,2 z2 | z8 | %21
w: tak- * eth a- way _ the|sin _ of the world, _ the|sin of the world,||
 z2 z D, (G,>B,) A,>C | (B, D2) D, (G,>B,) A,>C | (B,D-)D z z2 z G, | D,8- | D,2 z B,, C,2 C,C, | %26
w: that tak- * eth a-|way _ the sin _ of the|world, _ _ the|world,|_ that tak- eth a-|
 D,2 G,2 D,2 D,>D, | G,,4 z4 | z8 |] %29
w: way the sin of the|world.||

